X: 811
T: Welcom home old Rowley
N: "Scots air" handwritten after title; "Hand a'wa' frae me Donald" handwritten below first staff.
P: Longways for as many as will
%R: march, reel
B: "The Dancing-Master: Containing Directions and Tunes for Dancing" printed by W. Pearson for John Walsh, London ca. 1709
S: 7: DMDfD http://digital.nls.uk/special-collections-of-printed-music/pageturner.cfm?id=89751228 p.153
Z: 2013 John Chambers <jc:trillian.mit.edu>
M: C|
L: 1/8
K: F
% - - - - - - - - - - - - - - - - - - - - - - - - -
[|\
(FD3) F4 | (CA,3) C4 | (FD3) F3G | A4 G2F2 |][|\
A2c2 d2f2 | (cA) (GF) G3F | A2c2 d2f2 | A4 G2F2 |\
ABc2 def2 | ABc2 f3g | a2D2 F3G | A4 G2F2 |]
% - - - - - - - - - - - - - - - - - - - - - - - - -
%%begintext align
%% First and second men go the Figure round the we. till the first is second improper, and the second is
%% first improper, then the two we. do the same, then clap with your own and turn S. then clap sides,
%% and change places to proper all, then back to back with your own, and right and left to the second
%% proper.
%% [DMDfD]
%%endtext
%%sep 1 8 500

%%sep 1 1 500
%%sep 1 1 500
